X:48
T:Hills of Glenorchy, The
R:jig
H:See also #152
O:Scottish
Z:id:hn-jig-48
M:6/8
K:Edor
B2E EFE|BAB d2B|A2D DED|AFD FAd|B2E EFE|BAB d2e|dBd AFD|1 EFE E2d:|2 EFE E2B||
|:efe edB|efg f2e|ded dAF|dfe dAF|efe edB|efg f2e|dBd AFD|1 EFE E2B:|2 EFE E2d||
<end>
<start>
